assets/images/icons/ico-shop-1.svg

<svg width="32" height="32" viewBox="0 0 32 32" fill="none" xmlns="http://www.w3.org/2000/svg">
<path d="M27.0301 1.24836C27.3994 1.17194 27.8178 1.41558 27.8443 1.81056C27.8821 2.05269 27.7316 2.25623 27.5674 2.4121C23.8613 6.12199 20.1597 9.8349 16.4521 13.5425C16.2447 13.7794 15.8566 13.8225 15.616 13.6121C15.3163 13.3965 15.2997 12.9092 15.5721 12.6648C19.1897 9.03966 22.808 5.41376 26.4218 1.78483C26.6102 1.59113 26.7986 1.39213 27.0301 1.24836Z" fill="#F7F7F7"/>
<path d="M11.7809 6.76395C11.7785 6.48788 12.0379 6.26318 12.3003 6.26813C13.2731 6.26442 14.2459 6.26751 15.2187 6.2669C15.4872 6.24709 15.7636 6.46126 15.769 6.74724C15.7799 7.86887 15.7702 8.99111 15.7739 10.1134C15.7932 10.2136 15.7284 10.2941 15.6629 10.3585C15.255 10.7689 14.8544 11.1867 14.4477 11.599C13.9665 10.3455 13.001 9.27709 11.7815 8.75094C11.7761 8.08861 11.7761 7.42628 11.7809 6.76395Z" fill="#48FDBC"/>
<path d="M7.65156 9.65492C8.40818 9.55195 9.20492 9.58214 9.91954 9.83606C11.1545 10.2296 12.1123 11.172 12.4414 12.2648C9.77474 12.2675 7.10807 12.2658 4.44141 12.2653C4.70594 11.3477 5.42683 10.538 6.38091 10.0706C6.77208 9.86894 7.21025 9.74441 7.65156 9.65492Z" fill="#48FDBC"/>
<path d="M19.3395 12.0368C20.3945 11.0008 21.4516 9.96557 22.5093 8.93164C23.4161 8.9377 24.323 8.92962 25.2298 8.93501C25.5288 8.93029 25.7831 9.19551 25.7714 9.48563C25.781 10.4119 25.7721 11.3381 25.7755 12.2643C23.6621 12.265 21.5494 12.2636 19.4367 12.265C19.3257 12.265 19.2176 12.2441 19.1094 12.2266C19.1886 12.1667 19.2679 12.1061 19.3395 12.0368Z" fill="#48FDBC"/>
<path d="M1.39021 14.011C1.51959 13.8075 1.77383 13.7394 2.00158 13.7485C6.07921 13.7507 10.1561 13.75 14.2337 13.7485C14.4236 14.2706 14.8489 14.6958 15.3687 14.8887C15.9218 15.0681 16.5695 15.0151 17.0477 14.6663C17.4192 14.4128 17.6772 14.0307 18.0314 13.7575C22.0197 13.7379 26.0095 13.756 29.9979 13.7485C30.3407 13.7076 30.7054 13.9611 30.7129 14.3197C30.7205 14.8653 30.7144 15.4116 30.7152 15.9579C30.75 16.3082 30.4224 16.6336 30.0766 16.623C26.2411 16.6268 22.4048 16.6245 18.5693 16.6238C18.3007 16.6094 17.9981 16.7388 17.9179 17.0165C17.7438 17.3986 18.0601 17.8836 18.4854 17.8654C22.1067 17.8707 25.7288 17.8647 29.3502 17.8685C28.6223 21.9688 27.908 26.0721 27.1786 30.1725C27.1589 30.5008 26.8449 30.7808 26.515 30.7483C19.5015 30.7483 12.4888 30.749 5.4754 30.7483C5.18106 30.7725 4.88142 30.5508 4.83299 30.2572C4.58254 28.9013 4.3563 27.5408 4.1066 26.1841C3.62764 23.411 3.13279 20.6401 2.64474 17.8692C6.23886 17.8662 9.83298 17.8677 13.4271 17.8685C13.7131 17.8874 14.0241 17.727 14.0914 17.4311C14.2314 17.0528 13.9144 16.6056 13.505 16.6268C9.6423 16.6207 5.77881 16.6291 1.91608 16.623C1.63309 16.6404 1.42274 16.4195 1.28881 16.1955C1.26914 15.6613 1.28427 15.1263 1.27746 14.5921C1.27973 14.3946 1.25779 14.1752 1.39021 14.011ZM15.9157 16.6291C15.4587 16.6654 15.2279 17.2442 15.4867 17.6036C15.7432 18.0152 16.4734 17.9192 16.5839 17.4334C16.7435 17.0195 16.3493 16.5541 15.9157 16.6291ZM7.89821 21.0199C7.89518 23.2195 7.89216 25.4199 7.89972 27.6203C7.88535 27.9108 8.09418 28.1355 8.34539 28.2468C8.7328 28.3217 9.15275 28.0311 9.13383 27.618C9.13761 25.3662 9.13232 23.1136 9.1361 20.8618C9.04606 20.5947 8.80544 20.3518 8.50581 20.37C8.1638 20.3601 7.87475 20.6817 7.89821 21.0199ZM15.3793 21.0222C15.3755 23.1174 15.38 25.2133 15.377 27.3085C15.3778 27.5325 15.3558 27.7784 15.4829 27.9766C15.5586 28.1091 15.7084 28.1666 15.8333 28.2437C15.9422 28.243 16.0519 28.243 16.1624 28.2437C16.313 28.1658 16.4522 28.0667 16.5581 27.9328C16.5869 27.7754 16.6225 27.618 16.6187 27.4576C16.6141 25.3124 16.6194 23.1673 16.6157 21.0222C16.6384 20.6802 16.3417 20.3563 15.996 20.37C15.6517 20.3579 15.3558 20.6809 15.3793 21.0222ZM22.8588 20.861C22.8626 23.1128 22.8573 25.3654 22.8611 27.6172C22.846 27.9123 23.0646 28.1401 23.3227 28.2445C23.4316 28.243 23.5413 28.2422 23.651 28.243C23.9015 28.1363 24.1066 27.9108 24.0945 27.624C24.1035 25.4214 24.1005 23.218 24.096 21.0154C24.1179 20.6794 23.8319 20.3616 23.4922 20.37C23.191 20.3495 22.9496 20.5932 22.8588 20.861ZM11.941 20.4562C11.7549 20.5803 11.6126 20.7876 11.63 21.0192C11.6285 23.2158 11.627 25.4131 11.6308 27.6104C11.6028 28.0637 12.1574 28.414 12.5501 28.1734C12.7703 28.0462 12.905 27.7958 12.8838 27.5408C12.8846 25.4956 12.8831 23.4503 12.8846 21.4043C12.8816 21.2182 12.8967 21.0298 12.8626 20.8467C12.7711 20.4615 12.2815 20.2262 11.941 20.4562ZM19.4289 20.4532C19.236 20.575 19.0998 20.7929 19.1126 21.026C19.1088 23.1976 19.1119 25.3692 19.1111 27.5416C19.0793 27.8654 19.3192 28.1938 19.6446 28.243C20.0077 28.3096 20.3762 27.985 20.3641 27.6187C20.3687 25.4214 20.3664 23.2233 20.3649 21.0252C20.4027 20.5606 19.8269 20.1876 19.4289 20.4532Z" fill="#F7F7F7"/>
<path d="M25.9141 0.527003C26.5936 -0.165338 27.8164 -0.178201 28.5072 0.504303C29.2502 1.17773 29.2805 2.46556 28.5655 3.17001C27.1308 4.60992 25.6977 6.05135 24.2578 7.48673C24.8843 7.49657 25.5116 7.47311 26.1381 7.49808C27.0491 7.56921 27.8323 8.37807 27.8459 9.29514C27.8527 10.3598 27.8459 11.4251 27.8489 12.4905C28.5912 12.492 29.3342 12.489 30.0773 12.4913C30.7908 12.4837 31.4854 12.9233 31.7835 13.571C32.0635 14.1778 31.9326 14.8596 31.9628 15.5035C31.9878 16.0544 31.95 16.6506 31.5989 17.1031C31.3658 17.4209 31.0299 17.6728 30.6485 17.778C30.5411 18.254 30.4495 18.7337 30.3784 19.2164C29.789 22.5404 29.2116 25.8667 28.6169 29.1899C28.542 29.6666 28.4701 30.1448 28.3559 30.6139C28.2038 31.2238 27.7127 31.7376 27.1066 31.9086C26.7457 32.0289 26.3613 31.9941 25.9883 31.9986C19.304 31.9986 12.6197 31.9986 5.93612 31.9986C5.58578 31.9971 5.22562 32.0221 4.8889 31.9086C4.28207 31.7368 3.78873 31.2238 3.63739 30.6124C3.53222 30.1683 3.45807 29.7173 3.38921 29.2663C2.79448 25.9166 2.20883 22.5661 1.61636 19.2164C1.54524 18.7337 1.45368 18.254 1.34624 17.778C0.803714 17.6229 0.34972 17.1901 0.158286 16.6604C-0.0399585 16.1459 0.0531103 15.5852 0.0319239 15.048C0.0243573 14.479 -0.0089356 13.8631 0.321723 13.366C0.662219 12.8302 1.28192 12.4844 1.91751 12.4913C2.28525 12.4882 2.65298 12.492 3.02072 12.4905C3.26739 11.3101 3.85153 10.2016 4.7005 9.34432C6.14722 7.86128 8.36347 7.18256 10.3906 7.62217C10.3974 6.892 10.3716 6.16031 10.4034 5.4309C10.4564 4.5161 11.3001 3.74204 12.2118 3.74431C13.4732 3.74279 14.7353 3.74431 15.9974 3.74355C16.9599 3.71404 17.8308 4.55696 17.8671 5.51261C17.8807 6.53637 17.8648 7.56013 17.8746 8.58464C20.5547 5.89851 23.2318 3.21011 25.9141 0.527003ZM27.0317 1.24658C26.8002 1.39035 26.6118 1.58935 26.4234 1.78305C22.8096 5.41198 19.1912 9.03788 15.5737 12.663C15.3013 12.9074 15.3179 13.3947 15.6175 13.6104C15.8582 13.8207 16.2463 13.7776 16.4536 13.5407C20.1613 9.83312 23.8628 6.12021 27.5689 2.41032C27.7331 2.25445 27.8837 2.05091 27.8459 1.80878C27.8194 1.4138 27.401 1.17016 27.0317 1.24658ZM11.6322 5.59433C11.6262 6.40396 11.6262 7.21358 11.633 8.0232C13.1554 8.66636 14.3607 9.97235 14.9615 11.5046C15.4692 11.0006 15.9694 10.4899 16.4786 9.98824C16.5603 9.90955 16.6413 9.81118 16.6171 9.6886C16.6125 8.31678 16.6247 6.94497 16.611 5.5739C16.6042 5.22433 16.2592 4.96253 15.924 4.98674C14.7096 4.98749 13.4951 4.98371 12.2807 4.98825C11.9531 4.9822 11.6292 5.25686 11.6322 5.59433ZM8.1849 8.82601C7.65221 8.95162 7.12331 9.12641 6.65116 9.4094C5.49953 10.0654 4.62937 11.2019 4.31006 12.4897C7.52888 12.4905 10.7477 12.4928 13.9665 12.489C13.5693 10.9552 12.4131 9.63261 10.9225 9.08025C10.0599 8.72387 9.09819 8.68149 8.1849 8.82601ZM19.5264 12.2348C19.4477 12.3127 19.3607 12.3808 19.2737 12.4481C19.3925 12.4678 19.5113 12.4913 19.6331 12.4913C21.953 12.4897 24.2729 12.4913 26.5936 12.4905C26.5898 11.4493 26.5997 10.4082 26.5891 9.36702C26.6019 9.0409 26.3227 8.74278 25.9943 8.74808C24.9986 8.74203 24.0028 8.75111 23.0071 8.7443C21.8456 9.90652 20.6849 11.0703 19.5264 12.2348ZM1.39012 14.0106C1.25771 14.1748 1.27965 14.3943 1.27738 14.5917C1.28419 15.1259 1.26906 15.6609 1.28873 16.1951C1.42266 16.4191 1.63301 16.64 1.916 16.6226C5.77873 16.6287 9.64222 16.6203 13.505 16.6264C13.9143 16.6052 14.2313 17.0524 14.0914 17.4307C14.024 17.7266 13.713 17.887 13.427 17.8681C9.8329 17.8673 6.23878 17.8658 2.64466 17.8688C3.1327 20.6397 3.62756 23.4106 4.10652 26.1837C4.35622 27.5404 4.58246 28.9009 4.83291 30.2568C4.88134 30.5504 5.18097 30.7721 5.47531 30.7479C12.4888 30.7486 19.5015 30.7479 26.5149 30.7479C26.8448 30.7804 27.1588 30.5004 27.1785 30.1721C27.9079 26.0717 28.6222 21.9684 29.3501 17.8681C25.7287 17.8643 22.1066 17.8703 18.4853 17.865C18.06 17.8832 17.7437 17.3982 17.9178 17.0161C17.998 16.7384 18.3006 16.609 18.5693 16.6234C22.4048 16.6241 26.241 16.6264 30.0765 16.6226C30.4223 16.6332 30.7499 16.3078 30.7151 15.9575C30.7144 15.4112 30.7204 14.8649 30.7128 14.3193C30.7053 13.9607 30.3406 13.7072 29.9978 13.7481C26.0095 13.7556 22.0196 13.7375 18.0313 13.7571C17.6772 14.0303 17.4191 14.4124 17.0476 14.6659C16.5694 15.0147 15.9217 15.0677 15.3686 14.8883C14.8488 14.6954 14.4235 14.2702 14.2336 13.7481C10.156 13.7496 6.07913 13.7503 2.0015 13.7481C1.77375 13.739 1.51951 13.8071 1.39012 14.0106Z" fill="black"/>
<path d="M15.916 16.6271C16.3496 16.5522 16.7438 17.0176 16.5841 17.4315C16.4736 17.9172 15.7435 18.0133 15.487 17.6017C15.2282 17.2423 15.459 16.6635 15.916 16.6271Z" fill="black"/>
<path d="M7.89777 21.0201C7.87431 20.6818 8.16335 20.3603 8.50536 20.3701C8.805 20.3519 9.04562 20.5948 9.13566 20.8619C9.13187 23.1137 9.13717 25.3663 9.13339 27.6181C9.1523 28.0312 8.73236 28.3218 8.34495 28.2469C8.09374 28.1357 7.8849 27.9109 7.89928 27.6204C7.89171 25.42 7.89474 23.2197 7.89777 21.0201Z" fill="black"/>
<path d="M15.3783 21.0218C15.3548 20.6805 15.6507 20.3574 15.995 20.3696C16.3407 20.3559 16.6374 20.6798 16.6147 21.0218C16.6184 23.1669 16.6131 25.312 16.6177 27.4572C16.6215 27.6176 16.5859 27.775 16.5571 27.9323C16.4512 28.0663 16.312 28.1654 16.1614 28.2433C16.0509 28.2426 15.9412 28.2426 15.8323 28.2433C15.7074 28.1661 15.5576 28.1086 15.4819 27.9762C15.3548 27.778 15.3768 27.5321 15.376 27.3081C15.379 25.2129 15.3745 23.117 15.3783 21.0218Z" fill="black"/>
<path d="M22.8594 20.8575C22.9502 20.5896 23.1915 20.346 23.4927 20.3664C23.8324 20.3581 24.1185 20.6759 24.0965 21.0119C24.101 23.2145 24.1041 25.4179 24.095 27.6205C24.1071 27.9073 23.902 28.1328 23.6516 28.2394C23.5419 28.2387 23.4322 28.2394 23.3232 28.241C23.0652 28.1365 22.8465 27.9088 22.8616 27.6137C22.8579 25.3619 22.8632 23.1093 22.8594 20.8575Z" fill="black"/>
<path d="M11.9415 20.456C12.282 20.226 12.7716 20.4613 12.8631 20.8464C12.8972 21.0295 12.882 21.218 12.8851 21.4041C12.8835 23.4501 12.8851 25.4953 12.8843 27.5406C12.9055 27.7956 12.7708 28.046 12.5506 28.1731C12.1579 28.4138 11.6033 28.0634 11.6313 27.6102C11.6275 25.4129 11.629 23.2155 11.6305 21.019C11.6131 20.7874 11.7554 20.5801 11.9415 20.456Z" fill="black"/>
<path d="M19.43 20.4538C19.828 20.1882 20.4038 20.5612 20.366 21.0258C20.3675 23.2239 20.3698 25.422 20.3652 27.6193C20.3773 27.9856 20.0088 28.3102 19.6456 28.2436C19.3203 28.1944 19.0804 27.866 19.1122 27.5422C19.113 25.3698 19.1099 23.1982 19.1137 21.0266C19.1009 20.7935 19.2371 20.5756 19.43 20.4538Z" fill="black"/>
</svg>

<svg xmlns="http://www.w3.org/2000/svg" width="32" height="32" fill="none"><path fill="#F7F7F7" d="M27.03 1.248c.37-.076.788.168.814.563.038.242-.112.445-.277.601-3.706 3.71-7.407 7.423-11.115 11.13-.207.237-.595.28-.836.07-.3-.216-.316-.703-.044-.947a14663 14663 0 0 0 10.85-10.88c.188-.194.377-.393.608-.537"/><path fill="#48FDBC" d="M11.78 6.764c-.002-.276.258-.5.52-.496.973-.004 1.946 0 2.919-.001.268-.02.545.194.55.48.01 1.122.001 2.244.005 3.366.02.1-.046.181-.111.245-.408.41-.809.829-1.215 1.241-.482-1.254-1.447-2.322-2.667-2.848q-.008-.994 0-1.987M7.652 9.655c.756-.103 1.553-.073 2.268.181 1.235.394 2.192 1.336 2.521 2.429q-4 .001-8 0c.265-.917.986-1.727 1.94-2.194.391-.202.83-.327 1.27-.416M19.34 12.037q1.583-1.554 3.17-3.105c.906.006 1.813-.002 2.72.003a.545.545 0 0 1 .541.55c.01.927.001 1.853.005 2.78h-6.34c-.11 0-.218-.02-.327-.038.08-.06.159-.12.23-.19"/><path fill="#F7F7F7" d="M1.39 14.011c.13-.203.384-.272.612-.262q6.115.002 12.232 0c.19.522.615.947 1.135 1.14.553.18 1.2.126 1.679-.223.371-.253.63-.635.983-.909 3.989-.02 7.979-.001 11.967-.008.343-.041.707.212.715.57.008.546.001 1.093.002 1.639.035.35-.293.676-.638.665q-5.754.005-11.508 0c-.268-.014-.57.116-.651.393-.174.383.142.868.567.85 3.622.005 7.244-.001 10.865.003-.728 4.1-1.442 8.203-2.171 12.304-.02.328-.334.608-.664.575H5.475a.62.62 0 0 1-.642-.49c-.25-1.357-.477-2.717-.726-4.074-.48-2.773-.974-5.544-1.462-8.315q5.391-.003 10.782 0c.286.018.597-.142.664-.438.14-.378-.177-.825-.586-.804-3.863-.006-7.726.002-11.589-.004-.283.017-.493-.204-.627-.428-.02-.534-.005-1.069-.012-1.603.003-.197-.02-.417.113-.581m14.526 2.618c-.457.036-.688.615-.43.975.257.411.987.315 1.098-.17.16-.415-.235-.88-.668-.805m-8.018 4.39c-.003 2.2-.006 4.4.002 6.601-.015.29.194.515.445.627.388.075.808-.216.789-.629.004-2.252-.002-4.504.002-6.756-.09-.267-.33-.51-.63-.492-.342-.01-.631.312-.608.65m7.481.003c-.003 2.095.001 4.191-.002 6.287 0 .223-.021.47.106.668.076.132.225.19.35.267h.33c.15-.078.29-.177.395-.311.029-.158.064-.315.06-.475-.004-2.146.001-4.29-.002-6.436.022-.342-.274-.666-.62-.652-.344-.012-.64.31-.617.652m7.48-.161c.004 2.252-.002 4.504.002 6.756-.015.295.204.523.462.627q.163-.002.328-.001c.25-.107.456-.332.444-.619.009-2.203.006-4.406.001-6.609.022-.336-.264-.653-.604-.645-.301-.02-.542.223-.633.491m-10.918-.405c-.186.124-.328.332-.311.563q-.004 3.296 0 6.591c-.027.454.527.804.92.563a.68.68 0 0 0 .334-.632v-6.137c-.002-.186.013-.374-.021-.557-.092-.386-.582-.62-.922-.39m7.488-.003a.65.65 0 0 0-.316.573c-.004 2.172-.001 4.343-.002 6.516-.032.323.208.652.534.701.363.067.731-.258.72-.624.004-2.198.001-4.396 0-6.594.038-.464-.538-.837-.936-.572"/><path fill="#000" d="M25.914.527c.68-.692 1.902-.705 2.593-.023.743.674.773 1.962.058 2.666-1.434 1.44-2.867 2.881-4.307 4.317.626.01 1.254-.014 1.88.011.911.071 1.694.88 1.708 1.797.007 1.065 0 2.13.003 3.196.742.001 1.485-.002 2.228 0a1.9 1.9 0 0 1 1.706 1.08c.28.607.15 1.289.18 1.933.025.55-.013 1.147-.364 1.6-.233.317-.57.569-.95.674a19 19 0 0 0-.27 1.438c-.59 3.324-1.167 6.65-1.762 9.974-.075.477-.147.955-.261 1.424a1.83 1.83 0 0 1-1.25 1.295c-.36.12-.745.085-1.118.09H5.936c-.35-.002-.71.023-1.047-.09a1.83 1.83 0 0 1-1.252-1.297c-.105-.444-.179-.895-.248-1.346-.595-3.35-1.18-6.7-1.773-10.05a19 19 0 0 0-.27-1.438A1.82 1.82 0 0 1 .158 16.66c-.198-.514-.105-1.075-.126-1.612-.008-.569-.04-1.185.29-1.682.34-.536.96-.882 1.596-.875.367-.003.735.001 1.103 0A6.33 6.33 0 0 1 4.7 9.344c1.446-1.483 3.662-2.161 5.69-1.722.006-.73-.02-1.462.012-2.191.053-.915.897-1.689 1.809-1.687h3.785c.963-.03 1.834.813 1.87 1.769.014 1.023-.002 2.047.008 3.072 2.68-2.686 5.357-5.375 8.04-8.058m1.118.72c-.232.143-.42.342-.609.536q-5.421 5.443-10.85 10.88c-.272.244-.255.732.044.947.241.21.63.168.837-.07 3.707-3.707 7.409-7.42 11.115-11.13.164-.156.315-.36.277-.601-.027-.395-.445-.639-.814-.562m-15.4 4.347q-.01 1.215.001 2.43c1.522.642 2.728 1.948 3.329 3.48.507-.503 1.007-1.014 1.517-1.516.081-.078.162-.177.138-.3-.005-1.371.008-2.743-.006-4.114-.007-.35-.352-.611-.687-.587-1.214 0-2.429-.003-3.643.001-.328-.006-.652.269-.649.606M8.185 8.826c-.533.126-1.062.3-1.534.583a4.97 4.97 0 0 0-2.34 3.08q4.827.005 9.656 0c-.398-1.534-1.554-2.856-3.045-3.409-.862-.356-1.824-.399-2.737-.254m11.341 3.409a3 3 0 0 1-.252.213c.118.02.237.043.36.043h6.96c-.004-1.042.006-2.083-.005-3.124a.606.606 0 0 0-.595-.619c-.995-.006-1.991.003-2.987-.004a2169 2169 0 0 0-3.48 3.49M1.39 14.01c-.132.164-.11.383-.113.58.007.535-.008 1.07.012 1.604.134.224.344.445.627.428 3.863.006 7.726-.003 11.589.003.41-.02.726.426.586.805-.067.296-.378.456-.664.437q-5.391-.002-10.782 0c.488 2.772.983 5.543 1.462 8.316.25 1.356.475 2.717.726 4.073a.62.62 0 0 0 .642.49q10.52.002 21.04 0c.33.033.644-.247.663-.575.73-4.1 1.444-8.204 2.172-12.304-3.621-.004-7.243.002-10.865-.003-.425.018-.741-.467-.567-.849.08-.278.383-.407.651-.393q5.754.003 11.508 0c.345.01.673-.315.638-.666 0-.546.005-1.092-.002-1.638-.008-.358-.372-.612-.715-.57-3.989.007-7.978-.011-11.967.008-.354.273-.612.655-.983.909-.479.349-1.126.402-1.68.222a1.94 1.94 0 0 1-1.134-1.14q-6.117.003-12.232 0c-.228-.009-.482.06-.612.263"/><path fill="#000" d="M15.916 16.627c.434-.075.828.39.668.805-.11.485-.84.581-1.097.17-.259-.36-.028-.939.429-.975M7.898 21.02c-.024-.338.265-.66.607-.65.3-.018.54.225.63.492-.003 2.252.002 4.504-.002 6.756.02.413-.4.704-.788.629-.251-.111-.46-.336-.446-.627-.007-2.2-.004-4.4-.001-6.6M15.378 21.022c-.023-.341.273-.665.617-.652.346-.014.642.31.62.652.003 2.145-.002 4.29.003 6.435.004.16-.032.318-.06.475a1.2 1.2 0 0 1-.397.311h-.329c-.125-.077-.274-.134-.35-.267-.127-.198-.105-.444-.106-.668.003-2.095-.002-4.191.002-6.286M22.86 20.858c.09-.268.332-.512.633-.492.34-.008.626.31.604.646.004 2.203.007 4.406-.002 6.608.012.287-.193.513-.443.62q-.165-.001-.329.001c-.258-.104-.477-.332-.461-.627-.004-2.252.001-4.505-.003-6.756M11.942 20.456c.34-.23.83.005.921.39.034.183.019.372.022.558q-.002 3.069 0 6.137a.68.68 0 0 1-.334.632c-.393.24-.948-.11-.92-.563q-.005-3.296 0-6.591c-.018-.232.124-.439.31-.563M19.43 20.454c.398-.266.974.107.936.572q.005 3.297 0 6.593c.011.367-.357.691-.72.625-.326-.05-.566-.378-.534-.702.001-2.172-.002-4.344.002-6.515a.65.65 0 0 1 .316-.573"/></svg>
